images/logo-white.svg

<svg id="Layer_4" xmlns="http://www.w3.org/2000/svg" viewBox="0 0 839 200"><style>.st0{fill:#FFFFFF;}</style><g id="XMLID_7_"><path id="XMLID_2_" class="st0" d="M275.5 51.8c0 10.9-3.2 19.7-9.7 26.1-7.4 7.7-17 11.6-28.8 11.6-11.3 0-20.9-3.9-28.8-11.8-7.9-7.8-11.9-17.6-11.9-29.1s4-21.3 11.9-29.1c7.9-7.8 17.5-11.8 28.8-11.8 5.6 0 11 1.1 16.1 3.3 5.1 2.2 9.2 5.1 12.2 8.8l-6.9 6.9c-5.2-6.2-12.3-9.3-21.4-9.3-8.2 0-15.4 2.9-21.4 8.7-6 5.8-9 13.3-9 22.6s3 16.8 9 22.6c6 5.8 13.1 8.7 21.4 8.7 8.8 0 16-2.9 21.9-8.8 3.8-3.8 6-9.1 6.6-15.9H237v-9.4h38c.3 2.1.5 4 .5 5.9z"/><path id="XMLID_4_" class="st0" d="M285.4 87.8V9.5h24c12 0 21.7 3.6 28.9 10.9 7.2 7.3 10.8 16.7 10.8 28.3s-3.6 21-10.8 28.3c-7.2 7.3-16.8 10.9-28.9 10.9h-24zm10.1-9.6h13.9c9 0 16.2-2.6 21.5-7.8 5.3-5.2 7.9-12.4 7.9-21.8 0-9.3-2.6-16.5-7.9-21.7-5.3-5.2-12.5-7.8-21.5-7.8h-13.9v59.1z"/><path id="XMLID_8_" class="st0" d="M434.5 51.8c0 10.9-3.2 19.7-9.7 26.1-7.4 7.7-17 11.6-28.8 11.6-11.3 0-20.9-3.9-28.8-11.8-7.9-7.8-11.9-17.6-11.9-29.1s4-21.3 11.9-29.1c7.9-7.8 17.5-11.8 28.8-11.8 5.6 0 11 1.1 16.1 3.3 5.1 2.2 9.2 5.1 12.2 8.8l-6.9 6.9c-5.2-6.2-12.3-9.3-21.4-9.3-8.2 0-15.4 2.9-21.4 8.7-6 5.8-9 13.3-9 22.6s3 16.8 9 22.6c6 5.8 13.1 8.7 21.4 8.7 8.8 0 16-2.9 21.9-8.8 3.8-3.8 6-9.1 6.6-15.9H396v-9.4h38c.3 2.1.5 4 .5 5.9z"/><path id="XMLID_10_" class="st0" d="M470.8 87.8V9.5h24c12 0 21.7 3.6 28.9 10.9 7.2 7.3 10.8 16.7 10.8 28.3s-3.6 21-10.8 28.3c-7.2 7.3-16.8 10.9-28.9 10.9h-24zm10.1-9.6h13.9c9 0 16.2-2.6 21.5-7.8 5.3-5.2 7.9-12.4 7.9-21.8 0-9.3-2.6-16.5-7.9-21.7-5.3-5.2-12.5-7.8-21.5-7.8h-13.9v59.1z"/><path id="XMLID_13_" class="st0" d="M567.4 89.6c-8.1 0-14.7-2.7-19.7-8.1-5.1-5.4-7.6-12.2-7.6-20.5 0-7.8 2.5-14.5 7.4-20.1 4.9-5.6 11.2-8.4 18.9-8.4 7.9 0 14.3 2.6 19.1 7.8 4.8 5.2 7.2 12.1 7.2 20.8l-.1 1.9h-42.3c.3 5.4 2.1 9.7 5.4 12.8 3.3 3.1 7.2 4.7 11.6 4.7 7.2 0 12.1-3.1 14.7-9.2l9 3.7c-1.8 4.2-4.6 7.6-8.6 10.4-4.2 2.8-9.1 4.2-15 4.2zm14.5-35c-.2-3.1-1.6-6-4.2-8.8-2.6-2.8-6.4-4.2-11.5-4.2-3.7 0-6.9 1.2-9.7 3.5-2.7 2.3-4.6 5.5-5.6 9.4h31z"/><path id="XMLID_16_" class="st0" d="M613.7 87.8L592 34.2h11l15.8 41.6h.2l16-41.6h10.7l-21.9 53.6h-10.1z"/><path id="XMLID_18_" class="st0" d="M661.6 87.8h-10.1V9.5h45.7v9.6h-35.7v25.7h32.2v9.4h-32.2v33.6z"/><path id="XMLID_20_" class="st0" d="M727.7 89.6c-8.1 0-14.7-2.7-19.7-8.1-5.1-5.4-7.6-12.2-7.6-20.5 0-7.8 2.5-14.5 7.4-20.1 4.9-5.6 11.2-8.4 18.9-8.4 7.9 0 14.3 2.6 19.1 7.8 4.8 5.2 7.2 12.1 7.2 20.8l-.1 1.9h-42.3c.3 5.4 2.1 9.7 5.4 12.8 3.3 3.1 7.2 4.7 11.6 4.7 7.2 0 12.1-3.1 14.7-9.2l9 3.7c-1.8 4.2-4.6 7.6-8.6 10.4-4.3 2.8-9.2 4.2-15 4.2zm14.4-35c-.2-3.1-1.6-6-4.2-8.8-2.6-2.8-6.4-4.2-11.5-4.2-3.7 0-6.9 1.2-9.7 3.5-2.7 2.3-4.6 5.5-5.6 9.4h31z"/><path id="XMLID_27_" class="st0" d="M779.5 89.6c-6 0-10.9-1.5-14.8-4.4-3.9-2.9-6.8-6.6-8.6-10.9l9-3.7c2.8 6.7 7.7 10.1 14.5 10.1 3.1 0 5.7-.7 7.7-2.1 2-1.4 3-3.2 3-5.5 0-3.5-2.4-5.9-7.3-7.1l-10.8-2.6c-3.4-.9-6.7-2.5-9.7-5-3.1-2.4-4.6-5.7-4.6-9.9 0-4.7 2.1-8.6 6.3-11.5 4.2-3 9.2-4.4 14.9-4.4 4.7 0 9 1.1 12.7 3.2 3.7 2.2 6.4 5.2 8 9.2l-8.8 3.6c-2-4.7-6.1-7.1-12.2-7.1-3 0-5.5.6-7.5 1.9-2 1.2-3.1 2.9-3.1 5 0 3.1 2.4 5.1 7.1 6.2l10.6 2.5c5 1.2 8.8 3.2 11.2 6 2.4 2.8 3.6 6.1 3.6 9.6 0 4.8-2 8.8-5.9 12-4 3.3-9.1 4.9-15.3 4.9z"/><path id="XMLID_29_" class="st0" d="M830.9 88.7c-5.6 0-9.9-1.5-12.9-4.5s-4.4-7.2-4.4-12.7V43.4h-9.4v-9.2h9.4V17.8h10.1v16.4h13.1v9.2h-13.1v27.3c0 5.8 2.4 8.8 7.2 8.8 1.8 0 3.4-.3 4.6-.9l3.5 8.6c-2.2 1-4.9 1.5-8.1 1.5z"/><path id="XMLID_31_" class="st0" d="M222.2 192.7c-5.7 0-11.2-1.9-16.7-5.6-5.4-3.7-9-8.9-10.7-15.6l9.2-3.7c1.1 4.3 3.3 7.9 6.7 10.9 3.4 3 7.2 4.4 11.4 4.4 4.4 0 8.1-1.1 11.2-3.4 3.1-2.3 4.6-5.4 4.6-9.4 0-4.4-1.6-7.7-4.6-10.1-3.1-2.4-8-4.6-14.7-6.6-6.9-2.2-12.2-5-15.8-8.5-3.6-3.5-5.4-7.9-5.4-13.3 0-5.6 2.2-10.5 6.7-14.7 4.4-4.2 10.2-6.2 17.4-6.2 6.6 0 12 1.7 16.2 5 4.2 3.3 6.9 6.9 8.1 10.9l-9.2 3.8c-.7-2.5-2.3-4.8-4.9-6.9-2.6-2.1-5.9-3.2-10-3.2-3.9 0-7.2 1.1-9.9 3.2-2.7 2.2-4.1 4.8-4.1 8 0 2.9 1.3 5.4 3.8 7.4s6.2 3.8 11.1 5.4c3.9 1.2 7.1 2.4 9.7 3.6 2.6 1.2 5.2 2.7 7.9 4.6 2.7 1.9 4.7 4.3 6 7.2 1.3 2.9 2 6.2 2 10s-.8 7.2-2.4 10.2c-1.6 3-3.6 5.4-6.2 7.1-2.6 1.8-5.4 3.1-8.4 4-2.8 1-5.9 1.5-9 1.5z"/><path id="XMLID_33_" class="st0" d="M281.4 192.7c-8.1 0-14.7-2.7-19.7-8.1-5.1-5.4-7.6-12.2-7.6-20.5 0-7.8 2.5-14.5 7.4-20.1 4.9-5.6 11.2-8.4 18.9-8.4 7.9 0 14.3 2.6 19.1 7.8 4.8 5.2 7.2 12.1 7.2 20.8l-.1 1.9h-42.3c.3 5.4 2.1 9.7 5.4 12.8 3.3 3.1 7.2 4.7 11.6 4.7 7.2 0 12.1-3.1 14.7-9.2l9 3.7c-1.8 4.2-4.6 7.6-8.6 10.4-4.3 2.8-9.2 4.2-15 4.2zm14.4-35c-.2-3.1-1.6-6-4.2-8.8-2.6-2.8-6.4-4.2-11.5-4.2-3.7 0-6.9 1.2-9.7 3.5-2.7 2.3-4.6 5.5-5.6 9.4h31z"/><path id="XMLID_36_" class="st0" d="M330.3 192.7c-5.7 0-10.4-1.6-14.3-4.9-3.8-3.3-5.7-7.6-5.7-13 0-5.8 2.3-10.4 6.8-13.7 4.5-3.3 10.1-5 16.7-5 5.9 0 10.8 1.1 14.5 3.3v-1.5c0-3.9-1.3-7.1-4-9.5-2.7-2.4-6-3.6-10-3.6-2.9 0-5.6.7-7.9 2.1-2.4 1.4-4 3.3-4.9 5.7l-9.2-3.9c1.2-3.2 3.7-6.2 7.3-8.9 3.6-2.7 8.5-4.1 14.4-4.1 6.9 0 12.5 2 17.1 6 4.5 4 6.8 9.7 6.8 17v32.4h-9.6v-7.4h-.4c-4 5.9-9.9 9-17.6 9zm1.7-9.2c4.2 0 7.9-1.5 11.3-4.6 3.4-3.1 5.1-6.8 5.1-11-2.8-2.3-7.1-3.5-12.8-3.5-4.9 0-8.6 1.1-11 3.2-2.5 2.1-3.7 4.6-3.7 7.4 0 2.6 1.1 4.7 3.4 6.2 2.2 1.5 4.7 2.3 7.7 2.3z"/><path id="XMLID_39_" class="st0" d="M387 192.7c-6 0-10.9-1.5-14.8-4.4-3.9-2.9-6.8-6.6-8.6-10.9l9-3.7c2.8 6.7 7.7 10.1 14.5 10.1 3.1 0 5.7-.7 7.7-2.1 2-1.4 3-3.2 3-5.5 0-3.5-2.4-5.9-7.3-7.1l-10.8-2.6c-3.4-.9-6.7-2.5-9.7-5-3.1-2.4-4.6-5.7-4.6-9.9 0-4.7 2.1-8.6 6.3-11.5 4.2-3 9.2-4.4 14.9-4.4 4.7 0 9 1.1 12.7 3.2 3.7 2.2 6.4 5.2 8 9.2l-8.8 3.6c-2-4.7-6.1-7.1-12.2-7.1-3 0-5.5.6-7.5 1.9-2 1.2-3.1 2.9-3.1 5 0 3.1 2.4 5.1 7.1 6.2l10.6 2.5c5 1.2 8.7 3.2 11.2 6 2.4 2.8 3.6 6.1 3.6 9.6 0 4.8-2 8.8-5.9 12-4.1 3.3-9.1 4.9-15.3 4.9z"/><path id="XMLID_41_" class="st0" d="M419.7 143.7c5.2-5.4 11.8-8.1 19.8-8.1s14.6 2.7 19.8 8.1c5.2 5.4 7.8 12.2 7.8 20.4s-2.6 15-7.8 20.4c-5.2 5.4-11.8 8.1-19.8 8.1s-14.6-2.7-19.8-8.1c-5.2-5.4-7.8-12.2-7.8-20.4 0-8.1 2.6-14.9 7.8-20.4zm7.5 34.5c3.5 3.5 7.6 5.3 12.3 5.3 4.7 0 8.8-1.8 12.3-5.3s5.2-8.2 5.2-14.1c0-5.8-1.7-10.5-5.2-14.1-3.5-3.5-7.6-5.3-12.3-5.3-4.7 0-8.8 1.8-12.3 5.3s-5.2 8.2-5.2 14.1 1.7 10.6 5.2 14.1z"/><path id="XMLID_44_" class="st0" d="M483.8 137.3v7.4h.4c1.5-2.6 3.8-4.7 6.9-6.5 3.1-1.8 6.5-2.7 10.1-2.7 6.6 0 11.7 2 15.2 6.1s5.2 9.6 5.2 16.4v32.8h-10.1v-31.3c0-9.9-4.4-14.9-13.2-14.9-4.2 0-7.5 1.7-10.2 5-2.6 3.3-3.9 7.2-3.9 11.5v29.6h-10.1v-53.6h9.7z"/><path id="XMLID_46_" class="st0" d="M603.5 190.9h-47.7v-10.1c14.3-14.4 23.4-23.7 27.5-28.1 3.6-4 6-7.1 7.2-9.1 1.2-2.1 1.9-4.6 1.9-7.7 0-3.1-1.2-5.9-3.7-8.3-2.5-2.4-5.8-3.6-10-3.6-3.8 0-6.9 1.1-9.2 3.3-2.3 2.2-3.8 4.6-4.5 7.2l-9.2-3.7c1.2-3.9 3.8-7.7 7.8-11.2 3.9-3.5 9-5.2 15.3-5.2 6.9 0 12.6 2.1 17.1 6.3 4.4 4.2 6.7 9.3 6.7 15.2 0 7.3-4 15.1-11.9 23.4l-21.9 22h34.7v9.6z"/><path id="XMLID_48_" class="st0" d="M661.1 181.4c-5.5 7.5-12.8 11.3-21.8 11.3s-16.2-3.8-21.8-11.3c-5.5-7.5-8.3-16.8-8.3-27.9 0-11.2 2.8-20.5 8.3-27.9 5.5-7.5 12.8-11.2 21.8-11.2s16.2 3.7 21.8 11.2c5.5 7.5 8.3 16.8 8.3 27.9 0 11.1-2.8 20.4-8.3 27.9zm-21.8 1.7c6 0 10.8-2.8 14.4-8.4 3.6-5.6 5.4-12.6 5.4-21.1 0-8.5-1.8-15.6-5.4-21.2-3.6-5.6-8.4-8.4-14.4-8.4-6.1 0-10.9 2.8-14.4 8.4-3.6 5.6-5.4 12.6-5.4 21.2 0 8.5 1.8 15.5 5.4 21.1 3.6 5.6 8.4 8.4 14.4 8.4z"/><path id="XMLID_51_" class="st0" d="M701.3 190.9h-10.1v-62.3l-14.5 6.3-3.8-8.5 22-10.3h6.5v74.8z"/><path id="XMLID_53_" class="st0" d="M739.5 143.1c5.8 0 11.2 2.4 16.1 7.2 4.9 4.8 7.3 10.6 7.3 17.3 0 6.6-2.5 12.5-7.6 17.5s-11.1 7.5-18 7.5c-7.4 0-13.6-2.5-18.4-7.6-4.9-5.1-7.3-10.9-7.3-17.4 0-6.9 2.9-14.7 8.8-23.2l20.3-30.1 8.1 5.6-17.8 24.7.2.2c1.8-1.1 4.5-1.7 8.3-1.7zm-2.2 39.8c4.2 0 7.9-1.5 10.9-4.4 3-2.9 4.5-6.5 4.5-10.8 0-4.2-1.5-7.8-4.5-10.8-3-3-6.7-4.4-10.9-4.4s-7.9 1.5-10.9 4.4c-3.1 3-4.6 6.5-4.6 10.8 0 4.3 1.5 7.9 4.5 10.8 3 3 6.7 4.4 11 4.4z"/></g><g id="XMLID_261_"><path id="XMLID_259_" class="st0" d="M32.3 0H0l92.3 160 16.2-28z"/><path id="XMLID_258_" class="st0" d="M120.9 91L68.3 0H36.1l74.3 128.8 10.5-18.2c1.7-2.8 2.8-6.2 2.8-9.8-.1-3.6-1.1-6.9-2.8-9.8z"/><path id="XMLID_257_" class="st0" d="M56.3 104.1L.9 200h32.3l39.3-68z"/><path id="XMLID_256_" class="st0" d="M74.3 135.3L37 200h32.2l21.3-36.8z"/></g></svg>

<?xml version="1.0" standalone="no"?><!-- Generator: Gravit.io --><svg xmlns="http://www.w3.org/2000/svg" xmlns:xlink="http://www.w3.org/1999/xlink" style="isolation:isolate" viewBox="0 0 839 200" width="839" height="200"><defs><clipPath id="_clipPath_2PyOuOIiV5GCvowXKUfb7Gk6Ajmc1iJt"><rect width="839" height="200"/></clipPath></defs><g clip-path="url(#_clipPath_2PyOuOIiV5GCvowXKUfb7Gk6Ajmc1iJt)"><clipPath id="_clipPath_GKeHKOqjeWESjd9DvPAdKeszDbfSOpGn"><rect x="0" y="0" width="839" height="200" transform="matrix(1,0,0,1,0,0)" fill="rgb(255,255,255)"/></clipPath><g clip-path="url(#_clipPath_GKeHKOqjeWESjd9DvPAdKeszDbfSOpGn)"><g id="Group"><clipPath id="_clipPath_1Qgqq0ZDVSE4Raww6xBEouk2LVHriUfq"><rect x="0" y="0" width="839" height="200" transform="matrix(1,0,0,1,0,0)" fill="rgb(255,255,255)"/></clipPath><g clip-path="url(#_clipPath_1Qgqq0ZDVSE4Raww6xBEouk2LVHriUfq)"><g id="Group"><g id="Group"><g id="XMLID_261_"><path d=" M 32.3 0 L 0 0 L 92.3 160 L 108.5 132 L 32.3 0 L 32.3 0 L 32.3 0 Z " fill="rgb(255,255,255)"/><path d=" M 120.9 91 L 68.3 0 L 36.1 0 L 110.4 128.8 L 120.9 110.6 C 122.6 107.8 123.7 104.4 123.7 100.8 C 123.6 97.2 122.6 93.9 120.9 91 L 120.9 91 L 120.9 91 L 120.9 91 Z " fill="rgb(255,255,255)"/><path d=" M 56.3 104.1 L 0.9 200 L 33.2 200 L 72.5 132 L 56.3 104.1 L 56.3 104.1 L 56.3 104.1 Z " fill="rgb(255,255,255)"/><path d=" M 74.3 135.3 L 37 200 L 69.2 200 L 90.5 163.2 L 74.3 135.3 L 74.3 135.3 L 74.3 135.3 Z " fill="rgb(255,255,255)"/></g><g id="Group"><g id="Group"><g transform="matrix(1,0,0,1,147.632,28)"><text transform="matrix(1,0,0,1,0,60.328)" style="font-family:&quot;Gregory Packaging&quot;;font-weight:400;font-size:72px;font-style:normal;fill:#FFFFFF;stroke:none;">GDG DEVFEST            </text></g></g><g id="Group"><g transform="matrix(1,0,0,1,304,100)"><text transform="matrix(1,0,0,1,0,60.328)" style="font-family:&quot;Gregory Packaging&quot;;font-weight:400;font-size:72px;font-style:normal;fill:#FFFFFF;stroke:none;">GHANA 2017</text></g></g></g></g></g></g></g></g></g></svg>
